X:116
T:Charles Leslie
R:Strathspey
B:The Athole Collection
M:C|
L:1/8
K:D
F|D>EF>d A<F F>d|A<F F>d A<F F>d|D<E F>d A<F F>d|
A>F G/F/E/D/ E2 E>F|D>EF>d A<F F>d|A>FB>G A<F F>A|
d>e f<a e>fd>f|B>d B/A/G/F/ ~E2E||A|d>gf>e d<B B>d|
A<F F>d A<F F>A|d>gf>e d>B B>d|A<F G/F/E/D/ E2 E>A|
d>gf>e d<B B>d|A>F F>d A<F F>A|d>ef>a e>fd>f|B>d B/A/G/F/ ~E2E||

